X:101
T:Roxborough Castle
M:4/4
K:A
L:1/8
E2 |: "A" A2 (Ac) ecAc | "D" dcdf "A" ecAc | "D" dfdf "A" cecA | "E" BGEG "E" BdcB |
"A" A2 (Ac) ecAc | "D" dcdf "A" edcB | "D" Aagf "E" edcB |1 "A" A2 a2 A2 E2 :|2
"A" A2 a2 A2 (eg) || "A" aece fece | aece {fg}fece | "D" d2 fd "A" c2 ec |
"B" BABc "E" B2 (eg) | "A" aece fece | aece fece | "D" d2 fd "A" c2 ec |
"E" BABc "A" A2 (eg) || "A" aece fece | aece fece | "D" d2 fd "A" c2 ec |
"B" BABc "E" BdcB | "A" A2 (Ac) ecAc | "D "dcdf "A" edcB | "D" Aagf "E" edcB | "A" A2 a2 A2 |]
N:Alex Sasuclark

